!!!!SEGMENT: pl-kj--bj-muz-1605-iii-1_zelenski-wladyslaw--polonaise-op-47-nr-1.krn
!!!cenid: 18xx:3723
!!!COM: Żeleński, Władysław
!!!COM-rismID: pe41024455
!!!CDT: 1837/07/06-1921/01/23
!!!CNT: Polish
!!!OTL: Polonaise op. 47 nr 1
!!!PDT: 1894
!!!AGN:
!!!SMS-siglum: PL-Kj
!!!SMS-shelfmark: BJ Muz. 1605 III 1
!!!SMS-shelfwork: W
!!!SMS-variant:
!!!SMS-altvar:
!!!NIFC-rismSourceID:
!!!NIFC-islandoraID:
!!!URL-pdf-islandora:
!!!URL-scan: https://polona.pl/item/suite-de-danses-polonaises-pour-orchestre-op-47-1-polonaise,Nzk3OTc1Mzc/0 @EN{Scan on Polona} @PL{Skany w portalu Polona}
!!!ONB-nifc:
!!!OMD: Moderato
!!!AIN: 2 piano
!!!key: d
**kern	**kern	**dynam	**kern	**kern	**dynam
*part2	*part2	*part2	*part1	*part1	*part1
*staff4	*staff3	*	*staff2	*staff1	*
*I"PIANO Secondo.	*I"PIANO Secondo.	*	*I"PIANO Primo.	*I"PIANO Primo.	*
*Ipiano	*Ipiano	*	*Ipiano	*Ipiano	*
*ICklav	*ICklav	*	*ICklav	*ICklav	*
*clefF4	*clefF4	*	*clefG2	*clefG2	*
*k[b-]	*k[b-]	*	*k[b-]	*k[b-]	*
*d:	*d:	*	*d:	*d:	*
*M3/4	*M3/4	*	*M3/4	*M3/4	*
=1	=1	=1	=1	=1	=1
*MM92	*MM92	*MM92	*MM92	*MM92	*
!	!LO:TX:a:t=[quarter]=92	!	!	!LO:TX:a:t=[quarter]=92	!
!	!LO:TX:a:B:t=Moderato	!	!	!	!
8DD/ 8D	8F\ 8A 8d	f	8f/ 8a 8dd	8ff\ 8aa 8ddd	f
8r	8r	.	8r	8r	.
4..DD/ 4..D	4..F\ 4..A 4..d	.	4..f/ 4..a 4..dd	4..ff\ 4..aa 4..ddd	.
16DD/ 16D	16F\ 16A 16d	.	16f/ 16a 16dd	(16ff\ 16aa 16fff	.
=2	=2	=2	=2	=2	=2
8AAA/ 8AA	8E\ 8A 8c	.	8e/ 8a 8cc	8ee\) 8aa 8eee	.
8r	8r	.	8r	8r	.
4.CC/ 4.C	4.E\ 4.A	.	4.e/ 4.a	4.ee\ 4.aa	.
8FF/ 8F	8A\	.	8d/	8a\ 8dd	.
=3	=3	=3	=3	=3	=3
4.EE/ 4.E	[2G\	.	4.e/	8.dd\L	.
.	.	.	.	16cc#X\Jk	.
.	.	.	.	4.g/	.
8FF'/L 8F	.	.	8d'/L	.	.
8EE'/ 8E	8G\L]	.	8cn'/	.	.
8DD'/J 8D	8G'\J	.	8f'/J	8g/	.
=4	=4	=4	=4	=4	=4
*	*	*	*^	*	*
8.CC/L 8.C	8.G\L	.	4e/	8.e\L	(4g/	.
16BBB-/Jk 16BB-	16G\Jk	.	.	16d\Jk	.	.
2AAA/ 2AA	2A\	.	2c#X/ 2e	2ryy	2a/)	.
*	*	*	*v	*v	*	*
=5	=5	=5	=5	=5	=5
4GGG/ 4GG	8.c^\L	p	8.e/L	8.cc^\L	p
.	(16B-\Jk	>	(16d/Jk	(16b-\Jk	>
8AAA/L 8AA	2A\)	.	2c#X/)	2a/)	.
16r	.	]	.	.	.
!LO:TUP:b	!	!	!	!	!
48AAA/LL	.	.	.	.	.
48AA/	.	.	.	.	.
48AAA/JJJ	.	.	.	.	.
8AAA/L	.	.	.	.	.
8AAA/J	.	.	.	.	]
!LO:LB:g=original	!LO:LB:g=original	!	!	!	!
=6	=6	=6	=6	=6	=6
4GGG/ 4GG	8d^\L	mf	8f/L 8dd	8ff\L 8ddd	mf
.	16r	.	16r	16r	>
.	(32c\LL	>	(32e/LL 32cc	(32ee\LL 32ccc	.
.	32B-\JJJ	.	32d/JJJ 32b-	32dd\JJJ 32bb-	.
8GGG/L 8GG	4.A\)	.	4.c#X/) 4.a	4.cc#X\) 4.aa	]
16r	.	.	.	.	.
48GGG/LL	.	]	.	.	.
48GG/	.	.	.	.	.
48GGG/JJJ	.	.	.	.	.
8GGG/L 8GG	.	.	.	.	.
8GG/J 8G	8B-\ 8d	.	8g/	8b-\	.
!	!	!	!LO:LB:g=original	!LO:LB:g=original	!
=7	=7	=7	=7	=7	=7
*	*^	*	*	*	*
8.FF/L 8.F	(4c#X/	8.A\L	<	(8.a/L	(4cc#X\	<
16EE/Jk 16E	.	16G\Jk	.	16g/Jk	.	.
8DD'/L 8D	8A\L) 8d	2ryy	.	8f\L)	8dd\L)	.
*	*	*	*	*	*8va	*
8AA'/	8A'\ 8c# 8e	.	.	8a'\ 8cc#X 8ee	8aa'\ 8ccc# 8eee	.
8DD'/ 8D	8A'\ 8d 8f	.	.	8a'\ 8dd 8ff	8aa'\ 8ddd 8fff	.
8CCn'/J 8Cn	8cn'\J 8e 8g	.	[	8ccn'\J 8ee 8gg	8cccn'\J 8eee 8ggg	[
*	*v	*v	*	*	*	*
*	*clefG2	*	*	*	*
=8	=8	=8	=8	=8	=8
8.FFF/L 8.FF	8.A/L 8.c 8.f 8.a	f	8.cc\L 8.ff 8.aa	8.ccc\L 8.fff 8.aaa	f
16FFF/Jk 16FF	16A/Jk 16c 16f 16a	.	16cc\Jk 16ff 16aa	16ccc\Jk 16fff 16aaa	.
*tremolo	*	*	*	*	*
64FFF/LLLL	[2A/ [2c [2f [2a	.	[2cc\ [2ff [2aa	[2ccc\ [2fff [2aaa	.
64FF/	.	.	.	.	.
64FFF/	.	.	.	.	.
64FF/	.	.	.	.	.
64FFF/	.	.	.	.	.
64FF/	.	.	.	.	.
64FFF/	.	.	.	.	.
64FF/	.	.	.	.	.
64FFF/	.	.	.	.	.
64FF/	.	.	.	.	.
64FFF/	.	.	.	.	.
64FF/	.	.	.	.	.
64FFF/	.	.	.	.	.
64FF/	.	.	.	.	.
64FFF/	.	.	.	.	.
64FF/	.	.	.	.	.
64FFF/	.	.	.	.	.
64FF/	.	.	.	.	.
64FFF/	.	.	.	.	.
64FF/	.	.	.	.	.
64FFF/	.	.	.	.	.
64FF/	.	.	.	.	.
64FFF/	.	.	.	.	.
64FF/	.	.	.	.	.
64FFF/	.	.	.	.	.
64FF/	.	.	.	.	.
64FFF/	.	.	.	.	.
64FF/	.	.	.	.	.
64FFF/	.	.	.	.	.
64FF/	.	.	.	.	.
64FFF/	.	.	.	.	.
64FF/JJJJ	.	.	.	.	.
*Xtremolo	*	*	*	*	*
=9	=9	=9	=9	=9	=9
*	*	*	*^	*^	*
8FFF/ 8FF	8A/] 8c] 8f] 8a]	.	8cc\] 8ff] 8aa]	4.ryy	8ccc\] 8fff] 8aaa]	4.ryy	.
4FF^/ 4F	4A^>/ 4c 4f 4a	sf	4cc^\ 4ff 4aa	.	4ccc^\ 4fff 4aaa	.	sf
*	*	*	*v	*v	*	*	*
*	*	*	*	*v	*v	*
*	*	*	*^	*^	*
(8GG/L	(8G/L 8d	p	(16gg/LL	8b-\L	(16ggg/LL	8bb-\L	p
.	.	.	16ff/JJ	.	16fff/JJ	.	.
8AA/)	8A/) 8c	.	8ee/L)	8cc\	8eee/L)	8ccc\	.
8GG'/J	8G'/J 8d	.	(16gg/L	8b-\J	(16ggg/L	8bb-\J	.
.	.	.	16ff/JJ	.	16fff/JJ	.	.
*	*	*	*v	*v	*	*	*
*	*	*	*	*v	*v	*
=10	=10	=10	=10	=10	=10
8AA/	8A/ 8c	.	8cc\) 8ee	8ccc\) 8eee	.
4AAA^/ 4AA	4A^>/ 4c 4e	sf	4a^\ 4cc 4ee	4aa^\ 4ccc 4eee	sf
*	*	*	*	*X8va	*
(8GG/L	(8G/L 8d	p	(8b-/L	(16ff\LL	p
.	.	.	.	16ee\JJ	.
8AA/)	8A/) 8c	.	8f/)	8dd\L)	.
8GG'/J	8G'/J 8d	.	8b-/J	(16ff\L	.
.	.	.	.	16ee\JJ	.
!LO:LB:g=original	!LO:LB:g=original	!	!	!	!
=11	=11	=11	=11	=11	=11
*	*	*	*^	*	*
8.DD/L	8.A/L 8.d	.	8.a/L	4ryy	8.ff\L)	.
16DD/Jk 16D	16A/Jk 16e	.	16g/Jk 16a	.	16ee\Jk	.
*tremolo	*	*	*	*	*	*
64DD/LLLL	[2A/ [2d	.	[4a/	[<2f\	[4dd\	.
64D/	.	.	.	.	.	.
64DD/	.	.	.	.	.	.
64D/	.	.	.	.	.	.
64DD/	.	.	.	.	.	.
64D/	.	.	.	.	.	.
64DD/	.	.	.	.	.	.
64D/	.	.	.	.	.	.
64DD/	.	.	.	.	.	.
64D/	.	.	.	.	.	.
64DD/	.	.	.	.	.	.
64D/	.	.	.	.	.	.
64DD/	.	.	.	.	.	.
64D/	.	.	.	.	.	.
64DD/	.	.	.	.	.	.
64D/	.	.	.	.	.	.
64DD/	.	.	8a/L]	.	8dd\L]	.
64D/	.	.	.	.	.	.
64DD/	.	.	.	.	.	.
64D/	.	.	.	.	.	.
64DD/	.	.	.	.	.	.
64D/	.	.	.	.	.	.
64DD/	.	.	.	.	.	.
64D/	.	.	.	.	.	.
64DD/	.	.	16r	.	16r	.
64D/	.	.	.	.	.	.
64DD/	.	.	.	.	.	.
64D/	.	.	.	.	.	.
64DD/	.	.	(32cc/LL	.	(32ccc\LL	.
64D/	.	.	.	.	.	.
64DD/	.	.	32a/JJJ	.	32aa\JJJ	.
64D/JJJJ	.	.	.	.	.	.
*Xtremolo	*	*	*	*	*	*
*	*	*	*v	*v	*	*
!	!	!	!LO:LB:g=original	!LO:LB:g=original	!
=12	=12	=12	=12	=12	=12
!	!	!	!LO:TX:t=P:problem=brak zakończenia ligatury 	!	!
8DD/L	8A/L] 8d]	.	8.f/L)] 8.dd	8ddd\L)	.
16r	16r	.	.	16r	.
*	*clefF4	*	*	*	*
16FF/Jk	16F/Jk 16A	>	16f/Jk 16a	16cc\Jk 16aa	>
*tremolo	*	*	*	*	*
64DD/LLLL	[2F\ [2A	.	[2d/ [2f	[2ff\ [2aa [2ddd	.
64D/	.	.	.	.	.
64DD/	.	.	.	.	.
64D/	.	.	.	.	.
64DD/	.	.	.	.	.
64D/	.	.	.	.	.
64DD/	.	.	.	.	.
64D/	.	.	.	.	.
64DD/	.	.	.	.	.
64D/	.	.	.	.	.
64DD/	.	.	.	.	.
64D/	.	.	.	.	.
64DD/	.	.	.	.	.
64D/	.	.	.	.	.
64DD/	.	.	.	.	.
64D/	.	.	.	.	.
64DD/	.	.	.	.	.
64D/	.	.	.	.	.
64DD/	.	.	.	.	.
64D/	.	.	.	.	.
64DD/	.	.	.	.	.
64D/	.	.	.	.	.
64DD/	.	.	.	.	.
64D/	.	.	.	.	.
64DD/	.	.	.	.	.
64D/	.	.	.	.	.
64DD/	.	.	.	.	.
64D/	.	.	.	.	.
64DD/	.	.	.	.	.
64D/	.	.	.	.	.
64DD/	.	.	.	.	.
64D/JJJJ	.	]]	.	.	]
*Xtremolo	*	*	*	*	*
=13	=13	=13	=13	=13	=13
8DD/	8F\] 8A]	.	8d/] 8f]	8ff\] 8aa] 8ddd]	.
!	!LO:TX:b:i:t=legg.	!	!	!	!
(16DD/LL	(16D\LL	.	8r	8r	.
16EE/JJ	16E\JJ	.	.	.	.
8FF/L)	8F\L)	.	4r	4r	.
(16FF/L	(16F\L	.	.	.	.
16EE/JJ	16E\JJ	.	.	.	.
8DD/L)	8D\L)	.	4r	4r	.
8FF'/J	8F'\J	.	.	.	.
=14	=14	=14	=14	=14	=14
4.BB-/	4.B-\	.	8r	8r	p
.	.	.	4d/ 4e	(16g/LL	.
.	.	.	.	16f#X/JJ	.
!	!	!	!	!LO:TX:b:i:t=legg.	!
.	.	.	.	8g/L)	.
8AA'/L	8A'\L	.	4d/ 4e	8a'/	.
8GG'/	8G'\	.	.	8b-'/	.
8AA'/J	8A'\J	.	[8d/ [8e	8a'/J	.
=15	=15	=15	=15	=15	=15
4.BB-/	4.B-\	.	8d/] 8e]	16g\LL	.
.	.	.	.	(16ff#X\	.
.	.	.	4d/ 4e	16aa\	.
.	.	.	.	16gg\JJ	.
.	.	.	.	[2ddd\)	.
8GG'/L	8G'\L	.	4d/ 4e	.	.
8EE'/	8E'\	.	.	.	.
8GG'/J	8G'\J	.	[8d/ [8e	.	.
!LO:LB:g=original	!LO:LB:g=original	!	!	!	!
=16	=16	=16	=16	=16	=16
4.BB-/	4.B-\	.	8d/] 8e]	8ddd\L]	.
.	.	.	4d/ 4e	(16g\L	.
.	.	.	.	16f#X\JJ	.
.	.	.	.	8g/L)	.
8AA'/L	8A'\L	.	4d/ 4e	8a'/	.
8GG'/	8G'\	.	.	8b-'/	.
8AA'/J	8A'\J	.	[8d/ [8e	8a'/J	.
!	!	!	!LO:LB:g=original	!LO:LB:g=original	!
=17	=17	=17	=17	=17	=17
4.BB-/	4.B-\	.	8d/] 8e]	16g\LL	.
.	.	.	.	(16ff#X\	.
.	.	.	4d/ 4e	16aa\	.
.	.	.	.	16gg\JJ	.
.	.	.	.	[2eee\)	.
8GG'/L	8G'\L	.	4d/ 4e	.	.
8EE'/	8E'\	.	.	.	.
8BB-'/J	8B-'\J	.	(8d/ [8e	.	.
=18	=18	=18	=18	=18	=18
*tremolo	*	*	*	*	*
64AAA/LLLL	8A\	.	8c#X/L) 8e]	8eee\L]	.
64AA/	.	.	.	.	.
64AAA/	.	.	.	.	.
64AA/	.	.	.	.	.
64AAA/	.	.	.	.	.
64AA/	.	.	.	.	.
64AAA/	.	.	.	.	.
64AA/	.	.	.	.	.
64AAA/	8r	.	(16a/L	(16cc#X\L	<
64AA/	.	.	.	.	.
64AAA/	.	.	.	.	.
64AA/	.	.	.	.	.
64AAA/	.	.	16bn/JJ	16dd\JJ	.
64AA/	.	.	.	.	.
64AAA/	.	.	.	.	.
64AA/JJJJ	.	.	.	.	.
*Xtremolo	*	*	*	*	*
8AAA/ 8AA	8r	.	[2cc#X\)	[2ff\)	[
*	*clefG2	*	*	*	*
!	!LO:TX:b:i:t=poco	!	!	!	!
8r	(8a^>/L	.	.	.	.
4r	8g/)	.	.	.	.
.	8a'/J	.	.	.	.
=19	=19	=19	=19	=19	=19
!	!LO:TX:b:i:t=marc.	!	!	!	!
2.r	4.f/	.	16cc#\LL]	16ff\LL]	.
*	*	*	*	*8va	*
.	.	.	(16cc#X\ 16ee	(16ccc#X\ 16eee	.
.	.	.	16dd\ 16ff	16ddd\ 16fff	.
.	.	.	16ee\JJ 16gg	16eee\JJ 16ggg	.
.	.	.	[2ff\) [2aa	[2fff\) [2aaa	.
.	8e'/	.	.	.	.
.	8d'/L	.	.	.	.
.	8B-'/J	.	.	.	.
=20	=20	=20	=20	=20	=20
*tremolo	*	*	*	*	*
64AAA/LLLL	4A/	.	8ff\L] 8aa]	8fff\L] 8aaa]	.
64AA/	.	.	.	.	.
64AAA/	.	.	.	.	.
64AA/	.	.	.	.	.
64AAA/	.	.	.	.	.
64AA/	.	.	.	.	.
64AAA/	.	.	.	.	.
64AA/	.	.	.	.	.
*	*	*	*	*X8va	*
64AAA/	.	.	(16a\L	(16cc#X\L	p <
64AA/	.	.	.	.	.
64AAA/	.	.	.	.	.
64AA/	.	.	.	.	.
64AAA/	.	.	16b-\JJ	16dd\JJ	.
64AA/	.	.	.	.	.
64AAA/	.	.	.	.	.
64AA/JJJJ	.	.	.	.	.
*Xtremolo	*	*	*	*	*
8AAA/ 8AA	8r	.	[2cc#X\)	[2ff\)	[[
(8A\L	(8a/L	<	.	.	.
8G\)	8g/)	.	.	.	.
8A'\J	8a'/J	.	.	.	.
!LO:LB:g=original	!LO:LB:g=original	!	!	!	!
=21	=21	=21	=21	=21	=21
8.F\L	8.f/L	.	16cc#\LL]	16ff\LL]	.
*	*	*	*	*8va	*
.	.	.	(16cc#X\ 16ee	(16ccc#X\ 16eee	.
.	.	.	16dd\ 16ff	16ddd\ 16fff	.
(16E\Jk	(16e/Jk	.	16ee\JJ 16gg	16eee\JJ 16ggg	.
8D/L)	8d/L)	.	[2ff\) [2aa	[2fff\) [2aaa	.
8BBB-'/ 8BB-	8B-'/	.	.	.	.
8AAA'/ 8AA	8A'/	.	.	.	.
*	*clefF4	*	*	*	*
8FFF'/J 8FF	8F'/J	[[	.	.	.
!	!	!	!LO:LB:g=original	!LO:LB:g=original	!
=22	=22	=22	=22	=22	=22
8DDD/ 8DD	8D\	.	8ff\] 8aa]	8fff\] 8aaa]	.
*	*clefG2	*	*	*	*
4DD/ 4D	4A/ 4d 4f 4a	f	4ff\ 4aa 4ddd	4fff\ 4aaa 4dddd	f
8EE/L 8E	(16ee\LL	.	(16ccc\LL	(16cccc\LL	.
.	16dd\JJ	.	16bb-\JJ	16bbb-\JJ	.
8FF/ 8F	8cc/L)	.	8aa\L)	8aaa\L)	.
8GG/J 8G	16r	.	16r	16r	.
.	(32b-/LL	.	(32gg\LL	(32ggg\LL	.
.	32g/JJJ	.	32ee\JJJ	32eee\JJJ	.
=23	=23	=23	=23	=23	=23
8DD/ 8D	8a/)	.	8ff\)	8fff\)	.
4GGG/ 4GG	4G/ 4B- 4d 4g	.	4b-\ 4dd 4gg	4bb-\ 4ddd 4ggg 4bbb-	.
8AAA'/L 8AA	(16cc\LL	.	(16aa\LL	(16aaa\LL	.
.	16b-\JJ	.	16gg\JJ	16ggg\JJ	.
8DD'/ 8D	8a/L)	.	8ff\L)	8fff\L)	.
8FF'/J 8F	16r	.	16r	16r	.
.	(32g/LL	.	(32ee\LL	(32eee\LL	.
.	32f/JJJ	.	32dd\JJJ	32ddd\JJJ	.
=24	=24	=24	=24	=24	=24
8AA\ 8A	8e/)	.	8cc\)	8ccc\)	.
*	*clefF4	*	*	*X8va	*
4GG/	4D^\ 4B- 4d	>	4g^/	4b-^\ 4dd	.
8FF'/L	4D\ 4d	.	(16b-/LL	(16dd\LL	>
.	.	.	16a/JJ	16cc#X\JJ	.
8EE'/	.	.	8b-/L)	8dd\L)	.
8GG'/J	[8D\ [8d	.	16r	16r	.
.	.	.	(32anX/LL	(32ccn\LL	.
.	.	.	32g/JJJ	32b-\JJJ	]]
=25	=25	=25	=25	=25	=25
8AA/	8D\] 8d]	]	8f/)	8a/L)	p
!	!	!	!	!LO:TUP:b	!
8r	8r	.	8r	(24a/L	.
.	.	.	.	24b-/	.
.	.	.	.	24d/JJ	.
8r	8r	.	8r	4e/	.
(8AAA/L 8AA	(8G\L 8A	p	(8c#X/L	.	.
8DD/J)	8F\J) 8A	.	8d/J)	8d/)	.
8r	8r	.	8r	8r	.
!LO:PB:g=original	!LO:PB:g=original	!	!LO:PB:g=original	!LO:PB:g=original	!
=26||	=26||	=26||	=26||	=26||	=26||
!	!	!	!	!LO:TX:b:i:t=cantabile	!
8FF\L	8.F\L	< p	8.A/L	2.r	<
8C\ 8F	.	.	.	.	.
.	(16G\Jk	.	(16B-/Jk	.	.
8C\ 8F	(2A\)	[	4.c/)	.	[
8C\ 8F	.	.	.	.	.
8C\ 8F	.	.	.	.	.
8C#X\J 8F	.	.	8a/	.	.
=27	=27	=27	=27	=27	=27
8FF\L	2.B-\)	.	8.a/L	2.r	.
8D\ 8G	.	.	.	.	.
.	.	.	(32g/LL	.	.
.	.	.	32f/JJJ	.	.
8D\ 8G	.	.	4.d/)	.	.
8D\ 8G	.	.	.	.	.
8D\ 8G	.	.	.	.	.
8D\J 8G	.	.	(8f/	.	.
=28	=28	=28	=28	=28	=28
8FF/L	(2.G\	.	8.e/L)	2.r	.
8C/ 8E	.	.	.	.	.
.	.	.	(16d/Jk	.	.
8C/ 8E	.	.	4.B-/)	.	.
8C/ 8E	.	.	.	.	.
8C/ 8E	.	.	.	.	.
8C/J 8E	.	.	(8e/	.	.
=29	=29	=29	=29	=29	=29
8FF\L	[2.F\)	.	8d/)	2.r	.
8C\ 8A	.	.	8r	.	.
8C\ 8A	.	.	(4..c/	.	.
8C\ 8A	.	.	.	.	.
8C\ 8A	.	.	.	.	.
8C\J 8A	.	.	.	.	.
.	.	.	16B-/	.	.
=30	=30	=30	=30	=30	=30
!	!	!	!	!LO:TX:b:i:t=espress.	!
8FF\L	8.F\L]	.	8.A/L)	4r	<
8C\ 8F	.	.	.	.	.
.	(16G\Jk	.	(16B-/Jk	.	.
8C\ 8F	(>[<2A\)	.	4.c/)	4r	[
8C\ 8F	.	.	.	.	.
8C\ 8F	.	.	.	8r	.
8C#X\J 8F	.	.	8r	8a/	.
!LO:LB:g=original	!LO:LB:g=original	!	!LO:LB:g=original	!LO:LB:g=original	!
=31	=31	=31	=31	=31	=31
8DD/L	8A\L]) 8Bn	.	4r	8a/L	.
!	!	!	!	!LO:TUP:b	!
8D/	8F\ 8A	.	.	(24g/L	.
.	.	.	.	24f/	.
.	.	.	.	24d/JJ	.
8D/	8F\ 8A	.	4r	4.Bn/)	.
8D/	8F\ 8A	.	.	.	.
8D/	8F\ 8A	.	8r	.	.
!	!	!	!LO:TX:t=P:problem=cross-measure beam	!	!
8DD/J 8D	(>(<8F\J 8G#X	.	(8Bn/L	(8f/	.
=32	=32	=32	=32	=32	=32
8CC/ 8C	8E\)) 8A	.	8c/J)	8e/)	.
4CC^/ 4C	4E^\ 4A	<	8r	4e^/	<
.	.	.	4r	.	.
(8CC/ 8C	[<8A\L	.	.	(16d#X/LL	.
.	.	.	.	16e/JJ	.
4BBBn/) 4BBn	8A\] 8Bn	.	8.r	8d#/L) 8f#X	.
.	((8A\J 8B	.	.	16r	.
.	.	.	(32c#X/LLL	(32e/LL	.
.	.	.	32d#X/JJJ	32f#/JJJ	.
=33	=33	=33	=33	=33	=33
*^	*	*	*	*	*
8.E/L	[4EE\	8G#X\)) 8Bn	.	8e/)	8g#X/)	.
.	.	4G#\ 4B	.	8r	4e/	.
(32D/LL	.	.	.	.	.	.
32C/JJJ	.	.	.	.	.	.
8BBn/)	8EE\]	.	.	4r	.	.
(8EE/L 8E	4.ryy	((8G#\L 8B	.	.	(16d#X/LL	.
.	.	.	.	.	16e/JJ	.
8BB/)	.	8A\)) 8B	.	8.r	8d#/L) 8f	.
(>8BB/J	.	(<8A\J [>8B	.	.	16r	.
.	.	.	.	(32c#X/LLL	(32e/LL	.
.	.	.	.	32d#X/JJJ	32f/JJJ	.
*v	*v	*	*	*	*	*
=34	=34	=34	=34	=34	=34
*	*	*	*	*^	*
8EE/) 8E	8G#X\) 8B]	.	8e/)	8g#X/)	8ryy	<
16r	4G#\ 4Bn	<	4e/ 4g#X	4ee/	4bn\	.
*Xtuplet	*	*	*	*	*	*
(48E/LLL	.	.	.	.	.	.
48EE/	.	.	.	.	.	.
48E/JJJ	.	.	.	.	.	.
8EE/L)	.	.	.	.	.	.
(8BBBn/ [8BBn	((8A\L 8d	.	(8f/L 8a	(16dd/LL	4b\	.
.	.	.	.	16ff/JJ	.	.
8EE/) 8BB]	8G#\)) 8B	.	8e/) 8g#	8ee/L)	.	.
(8BBB/J [8BB	((8A\J 8d	.	(8f/J 8a	(16dd/L	[8b\	.
.	.	[	.	16ff/JJ	.	[
!LO:LB:g=original	!LO:LB:g=original	!	!LO:LB:g=original	!LO:LB:g=original	!LO:LB:g=original	!
=35	=35	=35	=35	=35	=35	=35
8.EE/L) 8.BBny]	8G#X\L)) 8Bn	.	8e/) 8g#X	8ee/)	8bny\]	.
.	((8G#\J 8B	f	(8e/L 8g#	8bn\L [8ee	4ryy	f
16DD/Jk 16D	.	.	.	.	.	.
[4CC/ [4C	8Gn\L)) 8B-X	.	8e/J) 8gn	8b-X\J 8ee]	.	.
.	(16G\L	>	16g'/LL	16gg'\LL 16ggg	4.ryy	>
.	16A\JJ	.	16f'/JJ	16ff'\JJ 16fff	.	.
8CC/] 8C]	8B-\L)	.	16e'/LL	16ee'\LL 16eee	.	.
.	.	.	16d'/	16dd'\ 16ddd	.	.
8r	(16D\L	.	16c'/	16cc'\ 16ccc	.	.
.	16E\JJ	]]	16B-'/JJ	16b-'\JJ 16bb-	.	]]
*	*	*	*	*v	*v	*
=36	=36	=36	=36	=36	=36
4FFF/ 4FF	8F\L)	mf	8.A/L	8.a\L 8.aa	mf
.	8C\J 8F 8A 8c	.	.	.	.
.	.	.	(16b-/Jk	(16bb-\Jk	.
4r	8C\L 8F 8A 8c	.	4.cc\)	4.ccc\)	.
.	8C\J 8F 8A 8c	.	.	.	.
4r	8C\L 8F 8A 8c	.	.	.	.
.	8C#X\J 8F 8A 8c#X	.	8aa\	8aaa\	.
=37	=37	=37	=37	=37	=37
4FFF/ 4FF	8r	.	8aa\L	8aaa\L	.
.	8D^\ 8G 8B- 8d	.	16rff	16rff	.
.	.	.	(32gg\LL	(32ggg\LL	.
.	.	.	32ff\JJJ	32fff\JJJ	.
4r	8D\L 8G 8B- 8d	.	4.dd\)	4.ddd\)	.
.	8D\ 8G 8B- 8d	.	.	.	.
4r	8D\ 8G 8B- 8d	.	.	.	.
.	8D\J 8G 8B- 8d	.	(8ff\	(8fff\	.
=38	=38	=38	=38	=38	=38
4FFF/ 4FF	8r	.	8.ee\L)	8.eee\L)	.
.	8C\ 8E 8B- 8c	.	.	.	.
.	.	.	(16dd\Jk	(16ddd\Jk	.
4r	8C\L 8E 8B- 8c	.	4.b-\)	4.bb-\)	.
.	8C\ 8E 8B- 8c	.	.	.	.
4r	8C\ 8G 8B- 8c	.	.	.	.
.	8C\J 8G 8B- 8c	.	(8ee\	(8eee\	.
=39	=39	=39	=39	=39	=39
4FFF/ 4FF	8r	>	8dd\)	8ddd\)	.
.	8C\ 8F 8A 8c	.	8r	8r	.
4r	8C\L 8F 8A 8c	.	(4..cc\	(4..ccc\	>
.	8C\ 8F 8A 8c	.	.	.	.
4r	8C\ 8F 8A 8c	.	.	.	.
.	8C\J 8F 8A 8c	]]	.	.	.
.	.	.	16b-\	16bb-\	.
!LO:LB:g=original	!LO:LB:g=original	!	!LO:LB:g=original	!LO:LB:g=original	!
=40	=40	=40	=40	=40	=40
8FFF/ 8FF	8.F\L 8.A	< p	8a/)	8aa\)	.
8r	.	.	8r	8r	]
.	(16G\Jk 16B-	.	.	.	.
8.EE-X^/L 8.E-X	4.A\) 4.c	[	4r	4r	.
16DD/Jk 16D	.	.	.	.	.
8CC/L 8C	.	.	4r	4r	.
*	*clefG2	*	*	*	*
8EE-/J 8E-	8c/ 8a	.	.	.	.
=41	=41	=41	=41	=41	=41
*	*^	*	*	*	*
!	!	!	!LO:DY:a	!	!LO:TX:b:i:t=legg.	!
[4DD/ [4D	(16g/LL	[4c\	>]	8a/L	8r	p
.	16f#X/	.	.	.	.	.
!	!	!	!	!	!LO:TUP:a	!
.	16a/	.	.	16r	(24ddd\LL	.
.	.	.	.	.	24eee\	.
.	16g/JJ	.	.	(16b-/Jk	.	.
.	.	.	.	.	24ddd\JJ	.
8DD/L] 8D]	8f#/)	8c\]	.	4.cc\)	8dd\)	.
8EE'/ 8E	8rcc	4.ryy	.	.	8r	.
8FF#X'/ 8F#X	4c/ 4d	.	.	.	8r	.
8DD'/J 8D	.	.	.	8r	8aa\	.
*	*v	*v	*	*	*	*
=42	=42	=42	=42	=42	=42
[4GG/	8.G/L 8.B-	<	2.r	(8aa\L	.
!	!	!	!	!LO:TUP:a	!
.	.	.	.	24gg\L	.
.	.	.	.	24dd\	.
.	(16A/Jk 16c	.	.	.	.
.	.	.	.	24cc\JJ	.
8GG/L]	4.B-/) 4.d	[	.	8b-\)	.
8AA'/ 8A	.	.	.	8r	.
8GG'/ 8G	.	.	.	4r	.
8FFn'/J 8Fn	8d'/ 8b-	.	.	.	.
=43	=43	=43	=43	=43	=43
*	*^	*	*	*	*
!	!	!	!LO:DY:a	!	!	!
[4EE/ [4E	(16a/LL	[4d\	>]	8bn\L	8r	.
.	16g#X/	.	.	.	.	.
!	!	!	!	!	!LO:TUP:a	!
.	16bn/	.	.	16r	(24ddd\LL	.
.	.	.	.	.	24eee\	.
.	16a/JJ	.	.	(16cc\Jk	.	<
.	.	.	.	.	24ddd\JJ	.
8EE/L] 8E]	8g#X/)	8d\]	.	4.dd\)	8dd\)	[
8FF#X'/ 8F#X	8rb	4.ryy	.	.	8r	.
8GG#X'/ 8G#X	4d/ 4e	.	.	.	8r	.
8EE'/J 8E	.	.	.	8r	8bbn\	.
*	*v	*v	*	*	*	*
!LO:LB:g=original	!LO:LB:g=original	!	!LO:LB:g=original	!LO:LB:g=original	!
=44	=44	=44	=44	=44	=44
8AA/	8.A/L 8.c	<	4r	(8bbn\L	.
!	!	!	!	!LO:TUP:a	!
8r	.	.	.	24aa\L	.
.	.	.	.	24ee\	.
.	(16Bn/Jk 16d	.	.	.	.
.	.	.	.	24dd\JJ	.
4r	8c/) 8e	[	4r	8cc\)	.
.	8G/L 8c 8e	pp	.	8r	.
4r	8G/ 8c 8e	.	8r	4r	.
!	!	!	!LO:TX:a:i:t=dolce	!	!
.	8G/J 8c 8e	.	(8cc\	.	.
*	*clefF4	*	*	*	*
=45	=45	=45	=45	=45	=45
(8qAAA/	.	.	.	.	.
[2AA/)	8r	.	8bn/L)	2.r	.
.	8D\ 8A 8Bn	.	16r	.	.
.	.	.	(32a/LL	.	.
.	.	.	32f/JJJ	.	.
.	8D\L 8A 8B	.	4.d/)	.	.
.	8D\ 8A 8B	.	.	.	.
8AA/]	8D\ 8A 8B	.	.	.	.
8r	8D\J 8A 8B	.	(8f/	.	.
=46	=46	=46	=46	=46	=46
(8qAAA/	.	.	.	.	.
[2AA/)	8r	.	8e/L)	4r	.
.	8C\ 8E 8A	.	16r	.	.
.	.	.	(32c/LL	.	.
.	.	.	32d/JJJ	.	.
.	8C\L 8E 8A	.	4.e/)	4r	.
.	8C\ 8E 8A	.	.	.	.
8AA/]	8C\ 8E 8A	.	.	8r	.
8r	8C\J 8E 8A	.	8r	([8cc\	.
=47	=47	=47	=47	=47	=47
(8qAAA/	.	.	.	.	.
[2.AA/)	8r	.	2.r	16cc/LL]	.
.	.	.	.	16bn/	.
.	8D\ 8A 8Bn	.	.	16a/	.
.	.	.	.	16f/JJ	.
.	8D\L 8A 8B	.	.	4.d/)	.
.	8D\ 8A 8B	.	.	.	.
.	8D\ 8A 8B	.	.	.	.
.	8D\J 8A 8B	.	.	(8f/	.
!LO:PB:g=original	!LO:PB:g=original	!	!LO:PB:g=original	!LO:PB:g=original	!
=48	=48	=48	=48	=48	=48
8AA/]	8E\ 8A 8c	.	8r	8e/)	.
4AA^/	4E^\	.	4c^/	4e^/	.
!	!LO:TX:b:i:t=legg.	!	!	!LO:TX:b:i:t=legg.	!
(8BB-X/L	(16D#X\LL	.	4c/	(16d#X/LL	.
.	16E\JJ	.	.	16e/JJ	.
8AA/J)	8F\L)	.	.	8f/L)	.
(8GG#X/	(16D#\L	.	[8c/	(16d#/L	.
.	16E\JJ	.	.	16e/JJ	.
=49	=49	=49	=49	=49	=49
8AA/)	8F\)	.	8c/]	8f/)	.
4AA^/	4F^\	.	4d-X^/	4f^/	.
!	!LO:TX:b:i:t=legg.	!	!	!LO:TX:b:i:t=legg.	!
(8GG#X/L	(16E\LL	.	4ryy	(16e/LL	.
.	16F\JJ	.	.	16f/JJ	.
8AA/)	8G-X\L)	.	.	8g-X/L)	.
(8BB-/J	(16E\L	.	N[<(>8d-/	(16e/L	.
.	16F\JJ	.	.	16f/JJ	.
=50	=50	=50	=50	=50	=50
*	*	*	*^	*	*
!	!LO:TX:b:i:t=poco marcato	!	!	!	!	!
8EE-X/)	8B-X/L)	.	(4dd-X/)	8d-\N]	8gn/)	.
*	*clefG2	*	*	*	*	*
!	!	!	!	!	!LO:TX:b:i:t=dolce	!
8r	8e-X'/	.	.	8ryy	(32ff\LLL	.
.	.	.	.	.	32aa-X\	.
.	.	.	.	.	32gg\	.
.	.	.	.	.	32ff\JJJ	.
4r	8a-X'/	.	2cc\)	2ryy	8ee-X\L)	.
.	8e-'/	.	.	.	([8ccc\J	.
4r	8a-'/	.	.	.	16ccc\LL]	.
.	.	.	.	.	16bb-\	.
.	8e-'/J	.	.	.	16aa-\	.
.	.	.	.	.	16ff\JJ)	.
*	*	*	*v	*v	*	*
=51	=51	=51	=51	=51	=51
2.r	8g'/L	.	(4b-\	([8ee-X\L	.
.	8c#X'/	.	.	32ee-\LL]	.
.	.	.	.	32dd\	.
.	.	.	.	32ff\	.
.	.	.	.	32ee-\JJJ	.
.	8f#X'/	.	[4a/)	[2dd\)	.
.	8d'/	.	.	.	.
.	8f#'/	.	8a/]	.	.
.	8d'/J	.	8r	.	.
!	!	!	!LO:LB:g=original	!LO:LB:g=original	!
=52	=52	=52	=52	=52	=52
!	!	!	!	!LO:TUP:a	!
2.r	8fn'/L	.	(4a-X/	(24dd\LL]	.
.	.	.	.	24cc\	.
.	.	.	.	24dd\	.
.	8B-'/	.	.	24ee-X\	.
.	.	.	.	24dd\	.
.	.	.	.	24cc\JJ	.
.	8e-X'/	.	2g/)	8b-\L)	.
.	8B-'/	.	.	([8gg\J	.
.	8e-'/	.	.	16gg\LL]	.
.	.	.	.	16ff\	.
.	8B-'/J	.	.	16ee-\	.
.	.	.	.	16cc\JJ)	.
!LO:LB:g=original	!LO:LB:g=original	!	!	!	!
=53	=53	=53	=53	=53	=53
2.r	8d'/L	.	(4f/	([8b-\L	.
.	8G#X'/	.	.	32b-\LL]	.
.	.	.	.	32a\	.
.	.	.	.	32cc\	.
.	.	.	.	32b-\JJJ	.
.	8c#X'/	.	[4en/)	[2a/)	.
.	8A'/	.	.	.	.
.	8c#'/	.	8e/]	.	.
.	8A'/J	.	8r	.	.
*	*clefF4	*	*	*	*
=54	=54	=54	=54	=54	=54
*	*	*	*	*Xtuplet	*
2.r	8cn'\L	p	(4e-X/	(24a/LL]	p
.	.	.	.	24g/	.
.	.	.	.	24a/	.
.	8F'\	.	.	24b-/	.
.	.	.	.	24a/	.
.	.	.	.	24g/JJ	.
.	8B-'\	.	[4d/)	8f/L)	.
.	8F'\	.	.	([8dd^>/J	.
.	8B-'\	.	8d/]	16dd\LL]	.
.	.	.	.	16cc\	.
.	8F'\J	.	8r	16b-\	.
.	.	.	.	16g\JJ	.
=55	=55	=55	=55	=55	=55
*	*^	*	*	*	*
*	*	*	*	*Xtuplet	*	*
2.r	(4e-X/	8c\L	<	24r	24f\LL)	<
.	.	.	.	(24g/LL	(24gg\	.
.	.	.	.	24a/	24aa\	.
.	.	8F\	.	24b-/	24bb-\	.
.	.	.	.	24a/	24aa\	.
.	.	.	.	24g/JJ	24gg\JJ	.
.	[4d/)	8B-\	.	8f/L)	8ff\L)	.
.	.	8F\	.	([>8dd^>/J	([8ddd^\J	.
.	8d/]	8B-\	.	16dd\LL]	16ddd\LL]	.
.	.	.	.	16cc\	16ccc\	[
.	8rc	8F\J	[[	16b-\	16bb-\	.
.	.	.	.	16g\JJ	16gg\JJ	.
*	*v	*v	*	*	*	*
!	!	!	!LO:LB:g=original	!LO:LB:g=original	!
=56	=56	=56	=56	=56	=56
8r	8B-\L	<	8f/L)	8ff\)	<
[8BB-/	[8B-\J	.	(>[>8b-^>/J	8r	.
(16BB-/LL]	(16B-\LL]	.	16b-\LL]	4r	.
16AA/	16A\	.	16a\	.	.
16D/	16d\	.	16dd\	.	.
16C/JJ	16c\JJ	.	16cc\JJ	.	.
16BB-/LL	16B-\LL	.	16b-\LL	4r	.
16AA/	16A\	.	16a\	.	.
16C/	16c\	.	16cc\	.	.
16BB-/JJ	16B-\JJ	.	16b-\JJ	.	.
!LO:LB:g=original	!LO:LB:g=original	!	!	!	!
=57	=57	=57	=57	=57	=57
16AA/LL)	16A\LL)	.	16a/LL)	16r	.
(16GG/	(16G\	.	(16g/	(16gg\LL	.
16BB-/	16B-\	.	16b-/	16bb-\	.
16AA/JJ	16A\JJ	.	16a/JJ	16aa\JJ	.
16GG/LL	16G\LL	.	16g/LL	16gg\LL	.
16FF/	16F\	.	16f/	16ff\	.
16AA/	16A\	.	16a/	16aa\	.
16GG/JJ	16G\JJ	.	16g/JJ	16gg\JJ	.
16FF/LL	16F\LL	.	16f/LL	16ff\LL)	.
16EEnX/	16E\	.	16e/	(16een\ 16eeen	.
16.GG/	16.G\	.	16.g/	16.gg\ 16.ggg	.
32FF/JJk)	32F\JJk)	.	32f/JJk)	32ff\JJk 32fff	.
=58	=58	=58	=58	=58	=58
8DD/	8D\	ff	8d/	8dd\) 8ddd	ff
8r	8r	.	8r	8r	.
4..DD/ 4..D	4..F\ 4..A 4..d	.	4..f/ 4..a 4..dd	4..ff\ 4..aa 4..ddd	.
16DD/ 16D	16F\ 16A 16d	.	16f/ 16a 16dd	16ff\ 16aa 16ddd 16fff	.
=59	=59	=59	=59	=59	=59
8AAA/ 8AA	8E\ 8A 8c	.	8e/ 8a 8cc	8ee\ 8aa 8ccc 8eee	.
8r	8r	.	8r	8r	.
4CC/ 4C	4E\ 4A	.	4e/ 4a	4ee\ 4aa	.
8r	8r	.	8r	8r	.
8FF/ 8F	8A\ 8d	.	8a\ 8dd	8aa\ 8ddd	.
!	!	!	!LO:LB:g=original	!LO:LB:g=original	!
=60	=60	=60	=60	=60	=60
*	*^	*	*^	*^	*
4.EE/ 4.E	8.d/L	[4G\	.	(8.dd/L	[4e\ 4g	(8.ddd/L	[4ee\ 4gg	.
.	16c#X/Jk	.	.	16cc#X/Jk	.	16ccc#X/Jk	.	.
.	[2G/	4.G\]	.	4.g/)	8e\L]	4.gg/)	8ee\L]	.
8FF'/L 8F	.	.	.	.	8d\	.	8dd\	.
8EE'/ 8E	.	.	.	.	8cn\	.	8ccn\	.
8DD'/J 8D	.	8F\	.	8g/	8f\J	8gg/	8ff\J	.
!LO:LB:g=original	!LO:LB:g=original	!LO:LB:g=original	!	!	!	!	!	!
=61	=61	=61	=61	=61	=61	=61	=61	=61
8.CC/L 8.C	(4G/]	2.E\	.	(4g/	8.e\L	(4gg/	8.ee\L	.
16BBB-/Jk 16BB-	.	.	.	.	16d\Jk	.	16dd\Jk	.
8AAA/L 8AA	2A/)	.	.	2c#X/) 2e 2a	2ryy	2cc#X\) 2ee 2aa	2ryy	.
16r	.	.	.	.	.	.	.	.
48AAA/LL	.	.	.	.	.	.	.	.
48AA/	.	.	.	.	.	.	.	.
[48AAA/JJJ	.	.	.	.	.	.	.	.
8AAA/L] 8AA	.	.	.	.	.	.	.	.
8AAA/J 8AA	.	.	.	.	.	.	.	.
*	*v	*v	*	*	*	*v	*v	*
*	*	*	*v	*v	*	*
=62	=62	=62	=62	=62	=62
4GGG/ 4GG	8.c^\L	.	8.e^/L 8.ccn	8.ee^\L 8.ccc	.
.	(16B-\Jk	.	(16d/Jk 16b-	(16dd\Jk 16bb-	.
8AAA/L 8AA	2A\)	.	2c#X/) 2a	2cc#X\) 2aa	.
16r	.	.	.	.	.
48AAA/LL	.	.	.	.	.
48AA/	.	.	.	.	.
[48AAA/JJJ	.	.	.	.	.
8AAA/L] 8AA	.	.	.	.	.
8AAA/J 8AA	.	.	.	.	.
=63	=63	=63	=63	=63	=63
4GGG/ 4GG	8d\L	.	8f/L 8dd	8ff\L 8ddd	.
.	16r	.	16r	16r	.
.	(32c\LL	.	(32e/LL 32cc	(32ee\LL 32ccc	.
.	32B-\JJJ	.	32d/JJJ 32b-	32dd\JJJ 32bb-	.
8AAA/L 8AA	4.A\)	.	4.c#X/) 4.a	4.cc#X\) 4.aa	.
16r	.	.	.	.	.
*Xtuplet	*	*	*	*	*
48AAA/LL	.	.	.	.	.
48AA/	.	.	.	.	.
[48AAA/JJJ	.	.	.	.	.
8AAA/L] 8AA	.	.	.	.	.
8GG/J 8G	8B-'\	.	8d/ 8g 8b-	8dd\ 8gg 8bb-	.
=64	=64	=64	=64	=64	=64
*	*^	*	*^	*^	*
8.FF/L 8.F	(4c#X/	8.A\L	.	(4cc#X/	8.a\L	(4ccc#X/	8.aa\L	.
16EE/Jk 16E	.	16G\Jk	.	.	16g\Jk	.	16gg\Jk	<
8DD/L 8D	8d/)	8F\L	<	8f\L) 8dd	2ryy	8ff\L) 8ddd	2ryy	.
*	*	*	*	*	*	*8va	*	*
8AA'/	4.ryy	8A\ 8c# 8e	.	8a\ 8cc# 8ee	.	8aa'\ 8ccc#X 8eee	.	.
8DD'/ 8D	.	8A'\ 8d 8f	.	8a\ 8dd 8ff	.	8aa'\ 8ddd 8fff	.	.
8CC'/J 8C	.	8cn'\J 8e 8g	[[	8ccn\J 8ee 8gg	.	8cccn'\J 8eee 8ggg	.	[[
*	*v	*v	*	*	*	*v	*v	*
*	*	*	*v	*v	*	*
!LO:LB:g=original	!LO:LB:g=original	!	!	!	!
=65	=65	=65	=65	=65	=65
8.FFF/L 8.FF	8.F\L 8.A 8.d 8.f	.	8.cc\L 8.ff 8.aa	8.ccc\L 8.fff 8.aaa	.
16FFF/Jk 16FF	16F\Jk 16A 16d 16f	.	16cc\Jk 16ff 16aa	16ccc\Jk 16fff 16aaa	.
*tremolo	*	*	*	*	*
32FFF/LLL	[2F\ [2A [2d [2f	.	[<2cc\ [>2ff [>2aa	[<2ccc\ [>2fff [>2aaa	.
32FF/	.	.	.	.	.
32FFF/	.	.	.	.	.
32FF/	.	.	.	.	.
32FFF/	.	.	.	.	.
32FF/	.	.	.	.	.
32FFF/	.	.	.	.	.
32FF/	.	.	.	.	.
32FFF/	.	.	.	.	.
32FF/	.	.	.	.	.
32FFF/	.	.	.	.	.
32FF/	.	.	.	.	.
32FFF/	.	.	.	.	.
32FF/	.	.	.	.	.
32FFF/	.	.	.	.	.
32FF/JJJ	.	.	.	.	.
*Xtremolo	*	*	*	*	*
!	!	!	!LO:LB:g=original	!LO:LB:g=original	!
=66	=66	=66	=66	=66	=66
*	*^	*	*^	*^	*
8FFF/ 8FF	8F\] 8A] 8d] 8f]	4.ryy	.	8cc\] 8ff] 8aa]	4.ryy	8ccc\] 8fff] 8aaa]	4.ryy	.
4FF^/ 4F	4F^\ 4A 4d 4f	.	.	4cc^\ 4ff 4aa	.	4ccc^\ 4fff 4aaa	.	.
8GG'/L 8G	(16g/LL	8B-\L	p	(16gg/LL	8b-\L	(16ggg/LL	8bb-\L	p
.	16f/JJ	.	.	16ff/JJ	.	16fff/JJ	.	.
8AA'/ 8A	8e/L)	8c\	.	8ee/L)	8cc\	8eee/L)	8ccc\	.
8GG'/J 8G	(16g/L	8B-\J	.	(16gg/L	8b-\J	(16ggg/L	8bb-\J	.
.	16f/JJ	.	.	16ff/JJ	.	16fff/JJ	.	.
=67	=67	=67	=67	=67	=67	=67	=67	=67
8AA\ 8A	8c\) 8e	4.ryy	.	8cc\) 8ee	4.ryy	8ccc\) 8eee	4.ryy	.
4AA^\ 4A	4c^\ 4e	.	f	4cc^\ 4ee	.	4ccc^\ 4eee	.	f
8GG'/L 8G	(16f/LL	4B-\	p	(16ff/LL	4b-\	(16fff/LL	[8bb-\L	p
.	16e/JJ	.	.	16ee/JJ	.	16eee/JJ	.	.
8BB-'/ 8F	8d/L)	.	.	8dd/L)	.	8ddd/L)	8bb-\]	.
8GG'/J 8G	(16f/L	8B-\	.	(16ff/L	(8b-\	(16fff/L	8bb-\J	.
.	16e/JJ	.	.	16ee/JJ	.	16eee/JJ	.	.
*	*	*	*	*	*	*X8va	*X8va	*
*	*v	*v	*	*	*	*v	*v	*
*	*	*	*v	*v	*	*
*	*	*	*	*X8va	*
=68	=68	=68	=68	=68	=68
*	*	*	*^	*^	*
8.DD/L 8.D	8.A\L) 8.f	.	8.a\L)) 8.ff	4ryy	8.aa\L) 8.fff	4ryy	.
16DD/Jk 16D	16G\Jk 16A	.	16g\Jk 16a 16ee	.	16gg\Jk 16aa 16eee	.	>
*tremolo	*	*	*	*	*	*	*
32DD/LLL	[2F\ [2A	>	[4a/ [4dd	[2f\	[4aa/ [4ddd	[4ff\	.
32D/	.	.	.	.	.	.	.
32DD/	.	.	.	.	.	.	.
32D/	.	.	.	.	.	.	.
32DD/	.	.	.	.	.	.	.
32D/	.	.	.	.	.	.	.
32DD/	.	.	.	.	.	.	.
32D/	.	.	.	.	.	.	.
32DD/	.	.	8a/L] 8dd]	.	8aa/L] 8ddd]	4ff\_	.
32D/	.	.	.	.	.	.	.
32DD/	.	.	.	.	.	.	.
32D/	.	.	.	.	.	.	.
32DD/	.	.	16r	.	16r	.	.
32D/	.	.	.	.	.	.	.
32DD/	.	.	(32cc/LL	.	(32ccc/LL	.	.
32D/JJJ	.	]]	32a/JJJ	.	32aa/JJJ	.	]]
*Xtremolo	*	*	*	*	*	*	*
*	*	*	*v	*v	*	*	*
*	*	*	*	*v	*v	*
=69	=69	=69	=69	=69	=69
8DD/L 8D	8.F\L] 8.A]	.	8.f/L] 8.dd)	8.ff\L] 8.ddd)	.
16r	.	.	.	.	.
16FF/Jk	16F\Jk 16A	p	16f/Jk 16a	16cc\Jk 16ff 16aa	p
*tremolo	*	*	*	*	*
32DD/LLL	[2F\ [2A	.	[2f/ [2a	[2ff\ [2aa [2ddd	.
32D/	.	.	.	.	.
32DD/	.	.	.	.	.
32D/	.	.	.	.	.
32DD/	.	.	.	.	.
32D/	.	.	.	.	.
32DD/	.	.	.	.	.
32D/	.	.	.	.	.
32DD/	.	.	.	.	.
32D/	.	.	.	.	.
32DD/	.	.	.	.	.
32D/	.	.	.	.	.
32DD/	.	.	.	.	.
32D/	.	.	.	.	.
32DD/	.	.	.	.	.
32D/JJJ	.	.	.	.	.
*Xtremolo	*	*	*	*	*
=70	=70	=70	=70	=70	=70
8DD/L 8D	8F\L] 8A]	.	8f/] 8a]	8ff\] 8aa] 8ddd]	.
!	!LO:TX:b:i:t=legg.	!	!	!	!
(16DD/L	(16D\L	.	8r	8r	.
16EE/JJ	16E\JJ	.	.	.	.
8FF/L)	8F\L)	.	4r	4r	.
(16FF/L	(16F\L	.	.	.	.
16EE/JJ	16E\JJ	.	.	.	.
8DD/L)	8D\L)	.	4r	4r	.
8FF'/J	8F'\J	.	.	.	.
!LO:PB:g=original	!LO:PB:g=original	!	!LO:PB:g=original	!LO:PB:g=original	!
=71	=71	=71	=71	=71	=71
4.BB-/	4.B-\	.	8r	8r	.
!	!	!	!	!LO:TX:b:i:t=dolce	!
.	.	.	4d/ 4e	(16g/LL	.
.	.	.	.	16f#X/JJ	.
.	.	.	.	8g/L)	.
8AA'/	8A'\	.	4d/ 4e	8a'/	.
8GG'/L	8G'\L	.	.	8b-'/	.
8AA'/J	8A'\J	.	[8d/ [8e	8a'/J	.
=72	=72	=72	=72	=72	=72
4.BB-/	4.B-\	.	8d/] 8e]	16g'\LL	.
.	.	.	.	(16ff#X\	.
.	.	.	4d/ 4e	16aa\	.
.	.	.	.	16gg\JJ	.
.	.	.	.	[2ddd\)	.
8GG'/	8G'\	.	4d/ 4e	.	.
8EE'/L	8E'\L	.	.	.	.
8GG'/J	8G'\J	.	[8d/ [8e	.	.
=73	=73	=73	=73	=73	=73
4.BB-/	4.B-\	.	8d/] 8e]	8ddd\L]	.
.	.	.	4d/ 4e	(16g\L	.
.	.	.	.	16f#X\JJ	.
.	.	.	.	8g/L)	.
8AA'/	8A'\	.	4d/ 4e	8a'/	.
8GG'/L	8G'\L	.	.	8b-'/	.
8AA'/J	8A'\J	.	[8d/ [8e	8a'/J	.
=74	=74	=74	=74	=74	=74
4.BB-/	4.B-\	.	8d/] 8e]	16g'\LL	.
.	.	.	.	(16ff#X\	.
.	.	.	4d/ 4e	16aa\	.
.	.	.	.	16gg\JJ	.
.	.	.	.	[2eee\)	.
8GG'/L	8G'\L	.	4d/ 4e	.	.
8EE'/	8E'\	.	.	.	.
8BB-'/J	8B-'\J	.	(8d/ [8e	.	.
=75	=75	=75	=75	=75	=75
*tremolo	*	*	*	*	*
32AAA/LLL	8A'\	.	8c#X/L) 8e]	8eee\L]	<
32AA/	.	.	.	.	.
32AAA/	.	.	.	.	.
32AA/	.	.	.	.	.
32AAA/	8r	.	(16a/L	(16cc#X\L	.
32AA/	.	.	.	.	.
32AAA/	.	.	16bn/JJ	16dd\JJ	.
32AA/JJJ	.	.	.	.	.
*Xtremolo	*	*	*	*	*
8AAA/ 8AA	8r	.	[2cc#X\)	[2ff\)	[
*	*clefG2	*	*	*	*
!	!LO:TX:b:i:t=marc.	!	!	!	!
8r	(8a/L	.	.	.	.
4r	8g/)	.	.	.	.
.	8a/J	.	.	.	.
!LO:LB:g=original	!LO:LB:g=original	!	!LO:LB:g=original	!LO:LB:g=original	!
=76	=76	=76	=76	=76	=76
2.r	4.f/	.	16cc#\LL]	16ff\LL]	<
*	*	*	*	*8va	*
.	.	.	(16cc#X\ 16ee	(16ccc#X\ 16eee	.
.	.	.	16dd\ 16ff	16ddd\ 16fff	.
.	.	.	16ee\JJ 16gg	16eee\JJ 16ggg	.
.	.	.	[2ff\) [2aa	[2fff\) [2aaa	[
.	8e'/L	.	.	.	.
.	8d'/	.	.	.	.
.	8B-'/J	.	.	.	.
=77	=77	=77	=77	=77	=77
*tremolo	*	*	*	*	*
32AAA/LLL	4A/	.	8ff\L] 8aa]	8fff\L] 8aaa]	.
32AA/	.	.	.	.	.
32AAA/	.	.	.	.	.
32AA/	.	.	.	.	.
*	*	*	*	*X8va	*
32AAA/	.	.	16a\L	(16cc#X\L	<
32AA/	.	.	.	.	.
32AAA/	.	.	16bn\JJ	16dd\JJ	.
32AA/JJJ	.	.	.	.	.
*Xtremolo	*	*	*	*	*
8AAA/ 8AA	8r	.	[2cc#X\	[2ff\)	[
(8A\L	(8a/L	mf	.	.	.
8G\)	8g/)	.	.	.	.
8A'\J	8a'/J	.	.	.	.
=78	=78	=78	=78	=78	=78
8.F\L	8.f/L	.	16cc#\LL]	16ff\LL]	<
*	*	*	*	*8va	*
.	.	.	(16cc#X\ 16ee	(16ccc#X\ 16eee	.
.	.	.	16dd\ 16ff	16ddd\ 16fff	.
(16E\Jk	(16e/Jk	.	16ee\JJ 16gg	16eee\JJ 16ggg	.
8D/L)	8d/L)	.	[2ff\) [2aa	[2fff\) [2aaa	[
8BBB-/ 8BB-	8B-'/	.	.	.	.
8AAA/ 8AA	8A'/	.	.	.	.
*	*clefF4	*	*	*	*
8FFF/J 8FF	8F'/J	.	.	.	.
=79	=79	=79	=79	=79	=79
8DDD/ 8DD	8D\	.	8ff\] 8aa]	8fff\] 8aaa]	.
4DD/ 4D	4A\ 4d 4f 4a	f	4ff\ 4aa 4ddd	4fff\ 4aaa 4dddd	f
*	*clefG2	*	*	*	*
8EE/L 8E	(16ee\LL	.	(16ccc\LL	(16cccc\LL	.
.	16dd\JJ	.	16bb-\JJ	16bbb-\JJ	.
8FF/ 8F	8cc\L)	.	8aa\L)	8aaa\L)	.
8GG/J 8G	16r	.	16r	16r	.
.	(32b-\LL	.	(32gg\LL	(32ggg\LL	.
.	32g\JJJ	.	32ee\JJJ	32eee\JJJ	.
!LO:LB:g=original	!LO:LB:g=original	!	!	!	!
=80	=80	=80	=80	=80	=80
8DD/ 8D	8a/)	.	8ff\)	8fff\)	.
4GGG/ 4GG	4G/ 4B- 4d 4g	f	4b-\ 4dd 4gg	4bb-\ 4ddd 4ggg 4bbb-	f
8AAA'/L 8AA	(16cc\LL	.	(16aa\LL	(16aaa\LL	.
.	16b-\JJ	.	16gg\JJ	16ggg\JJ	.
8DD'/ 8D	8a/L)	.	8ff\L)	8fff\L)	.
8FF'/J 8F	16r	.	16r	16r	.
.	(32g/LL	.	(32ee\LL	(32eee\LL	.
.	32f/JJJ	.	32dd\JJJ	32ddd\JJJ	.
!	!	!	!LO:LB:g=original	!LO:LB:g=original	!
=81	=81	=81	=81	=81	=81
8AA\ 8A	8e/)	.	8cc\)	8ccc\)	.
*	*clefF4	*	*	*	*
4GG^/	4D^\ 4B- 4d	f	4g\ 4b- 4dd	4gg\ 4bb- 4ddd	f
*	*	*	*	*X8va	*
8FF/	4D\ 4d	>	(16b-/LL	(16dd\LL	>
.	.	.	16a/JJ	16cc#X\JJ	.
8EE/L	.	.	8b-/L)	8dd\L)	.
8GG/J	[8D\ [8d	.	16r	16r	.
.	.	.	(32a/LL	(32ccn\LL	.
.	.	.	32g/JJJ	32b-\JJJ	]]
=82	=82	=82	=82	=82	=82
8AA/	8D\] 8d]	]	8f/)	8a/L)	.
*	*	*	*	*Xtuplet	*
8r	8r	.	8r	(24a/L	p
.	.	.	.	24b-/	.
.	.	.	.	24d/JJ	.
8r	8r	.	8r	[2e/)	.
8GG#X'/L	8G#X'\L 8B-	.	8d~/L	.	.
8GG#'/	8G#'\ 8B-	.	8d~/	.	.
8GG#'/J	8G#'\J 8B-	.	8d~/J	.	.
=83	=83	=83	=83	=83	=83
8AA/	8A\	<	8d/	8e/L]	.
8r	8r	.	8r	(24a/L	<
.	.	.	.	24b-/	.
.	.	.	.	24d/JJ	.
8r	8r	.	8r	[2e/)	.
8AA#X'/L	8A#X'\L	.	8c#X~/L 8f#X	.	[
8AA#'/	8A#'\	.	8c#~/ 8f#	.	.
8AA#'/J	8A#'\J	[[	8c#~/J 8f#	.	.
!LO:LB:g=original	!LO:LB:g=original	!	!	!	!
=84	=84	=84	=84	=84	=84
8BBn/	8Bn\L	p	8d/ 8g#X	8e/L]	.
8r	(8G#X\ 8B	.	8r	(24ee/L	p
.	.	.	.	24e/	.
.	.	.	.	24ee/JJ	.
4r	8A\) 8c	.	4r	8fn/L)	.
.	(8A\ 8c	.	.	(24ee/L	.
.	.	.	.	24f/	.
.	.	.	.	24ee/JJ	.
4r	8A#X\) 8c#X	.	4r	8f#X/L)	.
.	(8B\J 8d	.	.	(24g#X/L	.
.	.	.	.	24f#/	.
.	.	.	.	24g#/JJ	.
!	!	!	!LO:LB:g=original	!LO:LB:g=original	!
=85	=85	=85	=85	=85	=85
8r	8c#X/L) 8e	<	2.r	8a\L)	<
*	*clefG2	*	*	*	*
(8C#X/L	(8c#X/ 8e	.	.	(24aa\L	.
.	.	.	.	24a\	.
.	.	.	.	24aa\JJ	.
8D/)	8d/) 8f	.	.	8b-X\L)	.
(8D/	(8d/ 8f	.	.	(24aa\L	.
.	.	.	.	24b-\	.
.	.	.	.	24aa\JJ	.
8D#X/)	8d#X/) 8f#X	.	.	8bn\L)	.
(8D#/J	(8d#/J 8f#	.	.	(24aa\L	.
.	.	.	.	24b\	.
.	.	.	.	24aa\JJ	.
=86	=86	=86	=86	=86	=86
8E\)	8e/) 8g	.	8r	8cc#X\L)	.
8r	4e^/ 4g	.	4ee^\ 4gg	(24aaa\L	.
.	.	.	.	24aa\	.
.	.	.	.	24aaa\JJ	.
*tremolo	*	*	*	*	*
32AAA/LLL	.	.	.	8aa\L)	.
32AA/	.	.	.	.	.
32AAA/	.	.	.	.	.
32AA/	.	.	.	.	.
32AAA/	(8d/L 8f#X	.	(8dd\L 8ff#X	(24aaa\L	.
32AA/	.	.	.	.	.
.	.	.	.	24aa\	.
32AAA/	.	.	.	.	.
.	.	.	.	24aaa\JJ	.
32AA/	.	.	.	.	.
32AAA/	8c#X/) 8e	.	8cc#X\) 8ee	8aa\L)	.
32AA/	.	.	.	.	.
32AAA/	.	.	.	.	.
32AA/	.	.	.	.	.
32AAA/	(8Bn/J 8d	.	(8bn\J 8dd	(24aaa\L	.
32AA/	.	.	.	.	.
.	.	.	.	24aa\	.
32AAA/	.	.	.	.	.
.	.	.	.	24aaa\JJ	.
32AA/JJJ	.	.	.	.	.
*Xtremolo	*	*	*	*	*
=87	=87	=87	=87	=87	=87
*^	*^	*	*	*	*
8AAA/ 8AA	8ryy	8A/) 8c#X	8ryy	.	8a/) 8cc#X	8aa\L)	.
*	*	*clefF4	*	*	*	*	*
4AA/	(8AA\L	4A/	(8A\L	.	4a/	(24aaa\L	.
.	.	.	.	.	.	24aa\	.
.	.	.	.	.	.	24aaa\JJ	.
.	8GG#X\)	.	8G#X\)	.	.	8aa\L)	.
4AA/	(8GGn\	4A/	(8Gn\	.	4a/	(24aaa\L	.
.	.	.	.	.	.	24aa\	.
.	.	.	.	.	.	24aaa\JJ	.
.	8FF#X\)	.	8F#X\)	.	.	8aa\L)	.
8AA/	8EE\J	8A/	8E\J 8G	.	[8a/	(24aaa\L	.
.	.	.	.	.	.	24aa\	.
.	.	.	.	.	.	24aaa\JJ	.
*v	*v	*	*	*	*	*	*
*	*v	*v	*	*	*	*
!LO:LB:g=original	!LO:LB:g=original	!	!	!	!
=88||	=88||	=88||	=88||	=88||	=88||
*k[f#c#]	*k[f#c#]	*	*k[f#c#]	*k[f#c#]	*
*D:	*D:	*	*D:	*D:	*
(8DD/L 8AA	8.D\L 8.F#	f	8a/]	8aa\L)	f
8D/J)	.	.	4a/	(24aaa\L	.
.	.	.	.	24aa\	.
.	(16E\Jk 16G	.	.	.	.
.	.	.	.	24aaa\JJ	.
8D\L	4.F#\) 4.A	.	.	8aa\L)	.
8D\	.	.	4a/	(24aaa\L	.
.	.	.	.	24aa\	.
.	.	.	.	24aaa\JJ	.
8D\	.	.	.	8aa\L)	.
8D\J	8A'\ 8f#	.	[8a/	(24aaa\L	.
.	.	.	.	24aa\	.
.	.	.	.	24aaa\JJ	.
!	!	!	!LO:LB:g=original	!LO:LB:g=original	!
=89	=89	=89	=89	=89	=89
*	*^	*	*	*	*
(8DD/L 8BB	8.f#/L	[2G\	.	8a/]	8aa\L)	.
8D/J)	.	.	.	4a/	(24aaa\L	.
.	.	.	.	.	24aa\	.
.	(32e/LL	.	.	.	.	.
.	.	.	.	.	24aaa\JJ	.
.	32d/JJJ	.	.	.	.	.
8D\L	4.B/)	.	.	.	8aa\L)	.
8D\	.	.	.	4a/	(24aaa\L	.
.	.	.	.	.	24aa\	.
.	.	.	.	.	24aaa\JJ	.
8D\	.	8G\L]	.	.	8aa\L)	.
8D\J	8d/	8G\J	.	[8a/	(24aaa\L	.
.	.	.	.	.	24aa\	.
.	.	.	.	.	24aaa\JJ	.
=90	=90	=90	=90	=90	=90	=90
(8DD/L 8AA	(8.c#/L	[4E\ 4G	.	8a/]	8aa\L)	.
8D/J)	.	.	.	4a/	(24aaa\L	.
.	.	.	.	.	24aa\	.
.	16B/Jk	.	.	.	.	.
.	.	.	.	.	24aaa\JJ	.
8D\L	4.G/)	4.E\]	.	.	8aa\L)	.
8D\	.	.	.	4a/	(24aaa\L	.
.	.	.	.	.	24aa\	.
.	.	.	.	.	24aaa\JJ	.
8D\	.	.	.	.	8aa\L)	.
8D\J	8c#/	8E\ 8G	.	[8a/	(24aaa\L	.
.	.	.	.	.	24aa\	.
.	.	.	.	.	24aaa\JJ	.
*	*v	*v	*	*	*	*
=91	=91	=91	=91	=91	=91
(8DD/L 8AA	8G\ 8B	.	8a/]	8aa\L)	>
8D/J)	8r	>	4a/	(24aaa\L	.
.	.	.	.	24aa\	.
.	.	.	.	24aaa\JJ	.
8D\L	(4.F#\ 4.A	.	.	8aa\L)	.
8D\	.	.	4a/	(24aaa\L	.
.	.	.	.	24aa\	.
.	.	.	.	24aaa\JJ	.
8D\	.	.	.	8aa\L)	.
8D\J	8E\ 8G	]]	[8a/	(24aaa\L	.
.	.	.	.	24aa\	.
.	.	.	.	24aaa\JJ	]]
=92	=92	=92	=92	=92	=92
4.DD/ 4.AA	8.D\L) 8.F#	p	8a/]	8aa\L)	p
.	.	.	8r	(24aaa\L	.
.	.	.	.	24aa\	.
.	(16E\Jk 16G	.	.	.	.
.	.	.	.	24aaa\JJ	.
.	4.F#\) 4.A	.	4r	8aa\)	.
8EE'/L 8E	.	.	.	8r	.
8DD'/ 8D	.	.	4r	4r	.
*	*clefG2	*	*	*	*
8CCn'/J 8Cn	8A'/ 8f#	.	.	.	.
!LO:PB:g=original	!LO:PB:g=original	!	!LO:PB:g=original	!LO:PB:g=original	!
=93	=93	=93	=93	=93	=93
*	*^	*	*	*	*
!	!	!	!LO:DY:a	!	!	!
[4BBB/ [4BB	(16e/LL	[4A\	>]	8f#/L	8r	<
.	16d#X/	.	.	.	.	.
*	*	*	*	*	*tuplet	*
!	!	!	!	!	!LO:TUP:a	!
.	16f#/	.	.	16r	(24aaa\LL	.
.	.	.	.	.	24aa\	.
.	16e/JJ	.	.	(16g/Jk	.	.
.	.	.	.	.	24aaa\JJ	.
8BBB/L] 8BB]	8d#/)	8A\]	.	4.a/)	8aa\)	[
8C#X/	8rb	4.ryy	.	.	8r	.
8D#X/	(>4A/ 4B	.	.	.	4r	.
8BB/J	.	.	.	(8ff#\	.	.
*	*v	*v	*	*	*	*
=94	=94	=94	=94	=94	=94
*	*	*	*Xtuplet	*8va	*
4.EE\ 4.BB	8.E</L) 8.G<	<	(8ff#\L	8r	.
!	!	!	!	!LO:TUP:a	!
.	.	.	24ee\L	(24bbb\LL	.
.	.	.	24b\	24bb\	.
.	(16F#</Jk 16A<	.	.	.	.
.	.	.	24a\JJ	24bbb\JJ	.
.	4.G</) 4.B<	.	8g/)	8bb\)	.
8FF#'<\L 8F#	.	[	8r	8r	.
8EE'<\ 8E	.	.	4r	4r	.
8DD'<\J 8D	8B/ 8g	.	.	.	.
=95	=95	=95	=95	=95	=95
*	*^	*	*	*	*
!	!	!	!LO:DY:a	!	!	!
[4CC#/ [4C#	(16f#/LL	[4B\	>]	8g#X/L	8r	<
.	16e#X/	.	.	.	.	.
!	!	!	!	!	!LO:TUP:a	!
.	16g#X/	.	.	16r	(24bbb\LL	.
.	.	.	.	.	24bb\	.
.	16f#/JJ	.	.	(16a/Jk	.	.
.	.	.	.	.	24bbb\JJ	.
8CC#/L] 8C#]	8B/) 8e#	8B\]	.	4.b\)	8bbb\)	[
8D#X'/	8rb	4.ryy	.	.	8r	.
8E#X'/	(>4B/ 4c#	.	.	.	4r	.
8C#'/J	.	.	.	8gg#X\	.	.
*	*v	*v	*	*	*	*
=96	=96	=96	=96	=96	=96
[<4FF#\ [<4C#	8.F#</L) 8.A<	<	(8gg#X\L	8r	.
!	!	!	!	!LO:TUP:a	!
.	.	.	24ff#\L	(24aaa\LL	.
.	.	.	24cc#\	24aa\	.
.	(16G#X</Jk 16B<	.	.	.	.
.	.	.	24b\JJ	24aaa\JJ	.
8FF#\L] 8C#]	4.A</) 4.c#<	.	8a/)	8aa/)	.
8GG#X'>\ 8G#X	.	[	8r	8r	.
8FF#'>\ 8F#	.	<	4r	4r	.
8EE'>\J 8E	8c#/ 8a	.	.	.	.
!LO:LB:g=original	!LO:LB:g=original	!	!	!	!
=97	=97	=97	=97	=97	=97
*	*^	*	*	*	*
[4DD/ [4D	(16gn/LL	4.cn\	.	8a/L	8r	.
.	16f#/	.	.	.	.	.
!	!	!	!	!	!LO:TUP:a	!
.	16a/	.	.	16r	(24aaa\LL	<
.	.	.	.	.	24aa\	.
.	16g/JJ	.	.	(16b/Jk	.	.
.	.	.	.	.	24aaa\JJ	.
8DD/L] 8D]	8f#/L)	.	.	4.ccn\)	8aa/)	[
8EE'/ 8E	8c'/ 8e	4.ryy	.	.	8r	<
8FF#'/ 8F#	8c'/ 8d	.	.	.	8r	.
8DD'/J 8D	(>8c'/J 8d 8f# 8a	.	.	(<8cc\ [>8dd [>8aa	(<8cccn\ [>8ddd [>8aaa	.
!	!	!	!	!LO:LB:g=original	!LO:LB:g=original	!
=98	=98	=98	=98	=98	=98	=98
*	*	*	*	*^	*^	*
8GG/ 8G	8B/) 8d	4.ryy	.	8b\L) 8dd] 8aa]	4ryy	8bb\L) 8ddd] 8aaa]	4ryy	.
4GG^</ 4G	4B^</ 4d	.	f	[<8b^\J [<8dd [>8aa	.	[<8bb^\J [>8ddd [>8aaa	.	f
.	.	.	.	(16aa/LL]	8b\L] 8dd]	(16aaa/LL]	8bb\L] 8ddd]	.
.	.	.	.	16gg/)	.	16ggg/)	.	.
(8DD#X/L 8D#X	(8f#/L	4B\	.	(16bb/	(8ff#\	(16bbb/	(8fff#\J	.
.	.	.	.	16aa/JJ)	.	16aaa/JJ)	.	.
8EE/) 8E	8e/)	.	.	(16gg/LL	8ee\)	(16ggg/LL	8eee\L)	.
.	.	.	.	16ff#/)	.	16fff#/)	.	.
8DD#'/J 8D#	(>8F#/J 8B 8f#	8ryy	.	(16bb/	&((8ff#\J	(16bbb/	(8fff#\J	.
.	.	.	.	16aa/JJ	.	16aaa/JJ	.	.
*	*v	*v	*	*	*	*	*	*
=99	=99	=99	=99	=99	=99	=99	=99
8EE/ 8E	8G/) 8B 8g	.	8ee\&)) 8gg	4.ryy	8eee\)) 8ggg	4.ryy	.
4EE/ 4E	4B^>/ 4e 4g	.	4b^\ 4ee 4gg	.	4bb^\ 4eee 4ggg	.	.
8FF#/L	8A'/L 8c#X 8e	.	(16ff#/LL	(8cc#\L	(16fff#/LL	(8aa#X\L	.
.	.	.	16ee/JJ)	.	16eee/JJ)	.	.
8BBB/ 8BB	8A'/ 8d 8f#	.	(16dd/LL	8b\)	(16ddd/LL	8bb\)	.
.	.	.	16cc#/)	.	16ccc#/JJ)	.	.
8GG#X/J 8G#X	8B'/J 8d 8e	.	(16ee/	&(8b\J	(16eee/LL	(8bb\J	.
.	.	.	16dd/JJ)	.	16ddd/JJ)	.	.
*	*	*	*v	*v	*	*	*
*	*	*	*	*v	*v	*
=100	=100	=100	=100	=100	=100
*tremolo	*	*	*	*	*
32AAA/LLL	8A'/ 8d 8f#	.	8dd/L&)	8ff#/) 8aa	[[
32AA/	.	.	.	.	.
32AAA/	.	.	.	.	.
32AA/	.	.	.	.	.
*	*	*	*	*X8va	*
*	*clefF4	*	*	*	*
32AAA/	4D^\ 4F# 4A	p	([8f#^/J [8a	8r	p
32AA/	.	.	.	.	.
32AAA/	.	.	.	.	.
32AA/	.	.	.	.	.
32AAA/	.	.	16f#/LL] 16a]	4r	.
32AA/	.	.	.	.	.
32AAA/	.	.	16f#/)	.	.
32AA/	.	.	.	.	.
!	!	!LO:HP:t=cresc. poco a poco	!	!	!
32AAA/	4D\ 4F#	<	16b'/	.	.
32AA/	.	.	.	.	.
32AAA/	.	.	16a'/JJ	.	.
32AA/	.	.	.	.	.
!	!	!	!	!	!LO:HP:t=cresc. poco a poco
32AAA/	.	.	(16f#/LL	16r	<
32AA/	.	.	.	.	.
32AAA/	.	.	16d/	(16dd\LL	.
32AA/	.	.	.	.	.
32AAA/	((8D\ 8F#	.	16cc#/	16ccc#\	.
32AA/	.	.	.	.	.
32AAA/	.	.	16b/JJ	16bb\JJ	.
32AA/JJJ	.	.	.	.	.
=101	=101	=101	=101	=101	=101
!	!	!	!	!	!
32AAA/LLL	8E\)) 8G	.	8g/L)	8gg\)	.`
32AA/	.	.	.	.	.
32AAA/	.	.	.	.	.
32AA/	.	.	.	.	.
32AAA/	4E^\ 4G 4B	.	[8e^/J [8g [8b	8r	.
32AA/	.	.	.	.	.
32AAA/	.	.	.	.	.
32AA/	.	.	.	.	.
32AAA/	.	.	16e/LL] 16g] 16b]	4r	.
32AA/	.	.	.	.	.
32AAA/	.	.	16g'/	.	.
32AA/	.	.	.	.	.
32AAA/	4E\ 4G	.	16cc#'/	.	.
32AA/	.	.	.	.	.
32AAA/	.	.	16b'/JJ	.	.
32AA/	.	.	.	.	.
32AAA/	.	.	(16g/LL	16r	.
32AA/	.	.	.	.	.
32AAA/	.	.	16e/	(16ee\LL	.
32AA/	.	.	.	.	.
32AAA/	(8E\ 8G	.	16dd/	16ddd\	.
32AA/	.	.	.	.	.
32AAA/	.	.	16cc#/JJ	16ccc#\JJ	.
32AA/JJJ	.	.	.	.	.
!LO:LB:g=original	!LO:LB:g=original	!	!LO:LB:g=original	!LO:LB:g=original	!
=102	=102	=102	=102	=102	=102
32AAA/LLL	8F#\) 8A	.	8a/L)	8aa\)	.
32AA/	.	.	.	.	.
32AAA/	.	.	.	.	.
32AA/	.	.	.	.	.
32AAA/	4F#^\ 4A 4c#	.	([8f#^>/J [8a [8cc#	8r	.
32AA/	.	.	.	.	.
32AAA/	.	.	.	.	.
32AA/	.	.	.	.	.
32AAA/	.	.	16f#/LL] 16a] 16cc#]	4r	.
32AA/	.	.	.	.	.
32AAA/	.	.	16a/)	.	.
32AA/	.	.	.	.	.
32AAA/	4F#\ 4A	.	16dd'/	.	.
32AA/	.	.	.	.	.
32AAA/	.	.	16cc#'/JJ	.	.
32AA/	.	.	.	.	.
32AAA/	.	.	(16a/LL	16r	.
32AA/	.	.	.	.	.
32AAA/	.	.	16f#/	(16ff#\LL	.
32AA/	.	.	.	.	.
32AAA/	((8F#\ 8A	.	16ee/	16eee\	.
32AA/	.	.	.	.	.
32AAA/	.	.	16dd/JJ	16ddd\JJ	.
32AA/JJJ	.	.	.	.	.
=103	=103	=103	=103	=103	=103
32AAA/LLL	8G\)) 8B	.	16b\LL	16bb\LL	.
32AA/	.	.	.	.	.
32AAA/	.	.	16g\)	16gg\)	.
32AA/	.	.	.	.	.
*	*clefG2	*	*	*	*
32AAA/	4G^/ 4B 4d 4e	.	16ee'\	16eee'\	.
32AA/	.	.	.	.	.
32AAA/	.	.	16dd'\JJ	16ddd'\JJ	.
32AA/	.	.	.	.	.
32AAA/	.	.	(16b\LL	(16bb\LL	.
32AA/	.	.	.	.	.
32AAA/	.	.	16g\)	16gg\)	.
32AA/	.	.	.	.	.
32AAA/	4G/ 4B 4d 4e	.	16ff#'\	16fff#'\	.
32AA/	.	.	.	.	.
32AAA/	.	.	16ee'\JJ	16eee'\JJ	.
32AA/	.	.	.	.	.
32AAA/	.	.	(16dd\LL	(16ddd\LL	.
32AA/	.	.	.	.	.
32AAA/	.	.	16b\)	16bb\)	.
32AA/	.	.	.	.	.
32AAA/	[<8G/ [<8B [<8d [>8e	.	16aa'\	16aaa'\	.
32AA/	.	.	.	.	.
32AAA/	.	.	16gg'\JJ	16ggg'\JJ	.
32AA/JJJ	.	.	.	.	.
=104	=104	=104	=104	=104	=104
*	*	*	*	*8va	*
32AAA/LLL	8G/] 8B] 8d] 8e]	.	(16dd\LL	(16ddd\LL	.
32AA/	.	.	.	.	.
32AAA/	.	.	16b\)	16bb\)	.
32AA/	.	.	.	.	.
32AAA/	4B/ 4d 4e 4g	<	16aa'\	16aaa'\	.
32AA/	.	.	.	.	.
32AAA/	.	.	16gg'\JJ	16ggg'\JJ	.
32AA/	.	.	.	.	.
32AAA/	.	.	(16dd\LL	(16ddd\LL	<
32AA/	.	.	.	.	.
32AAA/	.	.	16b\)	16bb\)	.
32AA/	.	.	.	.	.
32AAA/	4B/ 4d 4e 4g	.	16aa'\	16aaa'\	.
32AA/	.	.	.	.	.
32AAA/	.	.	16gg'\JJ	16ggg'\JJ	.
32AA/	.	.	.	.	.
32AAA/	.	.	(16dd\LL	(16ddd\LL	.
32AA/	.	.	.	.	.
32AAA/	.	.	16b\)	16bb\)	.
32AA/	.	.	.	.	.
32AAA/	[<8B/ [<8d [>8e [>8g	.	16aa'\	16aaa'\	.
32AA/	.	.	.	.	.
32AAA/	.	.	16gg'\JJ	16ggg'\JJ	.
32AA/JJJ	.	.	.	.	.
=105	=105	=105	=105	=105	=105
32AAA/LLL	8B/] 8d] 8e] 8g]	.	(16dd\LL	(16ddd\LL	.
32AA/	.	.	.	.	.
32AAA/	.	.	16b\)	16bb\)	.
32AA/	.	.	.	.	.
32AAA/	4B/ 4d 4e 4g	.	16aa'\	16aaa'\	.
32AA/	.	.	.	.	.
32AAA/	.	.	16gg'\JJ	16ggg'\JJ	.
32AA/	.	.	.	.	.
32AAA/	.	.	(16dd\LL	(16ddd\LL	.
32AA/	.	.	.	.	.
32AAA/	.	.	16b\)	16bb\)	.
32AA/	.	.	.	.	.
32AAA/	4B/ 4d 4e 4g	.	16bb'\	16bbb'\	.
32AA/	.	.	.	.	.
32AAA/	.	.	16aa'\JJ	16aaa'\JJ	.
32AA/	.	.	.	.	.
32AAA/	.	.	16gg'\LL	16ggg'\LL	.
32AA/	.	.	.	.	.
32AAA/	.	.	16aa'\	16aaa'\	.
32AA/	.	.	.	.	.
32AAA/	(>(<[<8A/ 8c# 8e 8g	.	16bb'\	16bbb'\	.
32AA/	.	.	.	.	.
32AAA/	.	.	16ccc#'\JJ	16cccc#'\JJ	.
32AA/JJJ	.	[[	.	.	[[
*Xtremolo	*	*	*	*	*
=106	=106	=106	=106	=106	=106
*	*^	*	*^	*^	*
8DD/ 8D	8A/])) 8d 8f#	4.ryy	.	8ddd\	4.ryy	8dddd\	4.ryy	.
4DD/ 4D	4A/ 4d 4f# 4a	.	ff	4ff#\ 4aa 4ddd	.	4fff#\ 4aaa 4dddd	.	ff
8EE'/L 8E	(16cc#/LL	8e\L 8g	.	(16ccc#/LL	8gg\L	(16cccc#/LL	8eee\L	.
.	16b/JJ	.	.	16bb/JJ	.	16bbb/JJ	.	.
8FF#'/ 8F#	8a/L)	8c#\ 8f#	.	8aa/L)	8ff#\	8aaa/L)	8ccc#\	.
8DD'/J 8D	(16b/L	[8d\J [8f#	.	(16bb/L	[8ff#\J	(16bbb/L	[8ddd\J	.
.	16a/JJ	.	.	16aa/JJ	.	16aaa/JJ	.	.
!LO:LB:g=original	!LO:LB:g=original	!	!	!	!	!	!	!
=107	=107	=107	=107	=107	=107	=107	=107	=107
8BBB/ 8BB	8b/)	8d\] 8f#]	.	8ff#\)] 8bb	4.ryy	8ddd\)] 8bbb	4.ryy	.
4BBB/ 4BB	4d/ 4f# 4b	4ryy	.	4dd\ 4ff# 4bb	.	4ddd\ 4fff# 4bbb	.	.
(8EEE/L 8EE	(16e/LL 16g	8B\L	.	(16gg/LL	(8b\L	(16ggg/LL	(8bb\L	.
.	16d/JJ 16f#	.	.	16ff#/JJ	.	16fff#/JJ	.	.
8AAA/) 8AA	8e/L)	8c#\	.	8ee/L)	8cc#\)	8eee/L)	8ccc#\)	.
8FFF#'/J 8FF#	(16f#/L	8A\J 8c#	.	(16ff#/L	&(8a\J	(16fff#/L	(8aa\J	.
.	16e/JJ	.	.	16ee/JJ	.	16eee/JJ	.	.
*	*v	*v	*	*	*	*	*	*
=108	=108	=108	=108	=108	=108	=108	=108
8.BBB/L 8.BB	8.F#/L) 8.B 8.d	.	8.f#/L)&) 8.dd	2ryy	8.ff#/L)) 8.ddd	2ryy	.
16EE/Jk 16E	16G/Jk 16c# 16e	.	16e/Jk 16g 16cc#	.	16ee/Jk 16gg 16ccc#	.	.
4.GG/ 4.D	4.G/ 4.B 4.d	.	4.g/ 4.b	.	4.dd/ 4.gg 4.bb	.	.
.	.	.	.	8ryy	.	8ryy	.
8EE/ 8E	8G/ 8c# 8e	.	(16cc#/LL	&(8g\	(16ccc#/LL	(8ee\	.
.	.	.	16b/JJ	.	16bb/JJ	.	.
=109	=109	=109	=109	=109	=109	=109	=109
8.BBB/L 8.BB	8.F#/L 8.B 8.d	.	8.f#/L)&) 8.dd	2ryy	8.ff#/L)) 8.ddd	2ryy	.
16EE/Jk 16E	16G/Jk 16c# 16e	.	16e/Jk 16g 16cc#	.	16ee/Jk 16gg 16ccc#	.	.
4.GG/ 4.D	4.G/ 4.B 4.d	.	4.d/ 4.g 4.b	.	4.dd/ 4.gg 4.bb	.	.
.	.	.	.	8ryy	.	8ryy	.
*	*clefF4	*	*	*	*	*	*
8EE/ 8E	(8G\ 8c# 8e	.	(16cc#/LL	(8g\	(16ccc#/LL	(8ee\	.
.	.	.	16b/JJ	.	16bb/JJ	.	.
=110	=110	=110	=110	=110	=110	=110	=110
8BBB/L 8BB	8F#\L) 8B 8d	.	8dd/L)	8f#\L)	8ddd/L)	8ff#\L)	.
8EE/ 8E	(8G\ 8B 8c#	.	(16cc#/L	(8g\J	(16ccc#/L	(8ee\J	.
.	.	.	16b/JJ	.	16bb/JJ	.	.
8BBB/ 8BB	8F#\) 8B 8d	.	8dd/L)	8f#\L)	8ddd/L)	8ff#\L)	.
8EE/ 8BB 8E	(8G\ 8B 8c#	.	(16cc#/L	(8g\J	(16ccc#/L	(8ee\J	.
.	.	.	16b/JJ	.	16bb/JJ	.	.
8BBB/ 8BB	8F#\) 8B 8d	.	8dd/L)	8f#\L)	8ddd/L)	8ff#\L)	.
8EE/J 8E	(8G\J 8B 8c#	.	(16cc#/L	(8g\J	(16ccc#/L	(8ee\J	.
.	.	.	16b/JJ	.	16bb/JJ	.	.
=111	=111	=111	=111	=111	=111	=111	=111
8BBB/L 8BB	8F#\L) 8B 8d	.	8dd/L)	8f#\L)	8ddd/L)	8ff#\L)	.
8EE/ 8E	(8G\ 8B 8c#	.	(16cc#/L	(8g\J	(16ccc#/L	(8ee\J	.
.	.	.	16b/JJ	.	16bb/JJ	.	.
8BBB/ 8BB	8F#\) 8B 8d	.	8dd/L)	8f#\L)	8ddd/L)	8ff#\L)	.
8EE/ 8E	(8G\ 8B 8c#	.	(16cc#/L	(8g\J	(16ccc#/L	(8ee\J	.
.	.	.	16b/JJ	.	16bb/JJ	.	.
8BBB/ 8BB	8F#\) 8B 8d	.	8dd/L)	8f#\L)	8ddd/L)	8ff#\L)	.
8AAA/J 8AA	(8A\J 8c# 8e	.	8ee'/J	8a\J 8cc#	8eee'/J	8aa\J 8ccc#	.
*	*	*	*v	*v	*	*	*
*	*	*	*	*v	*v	*
!LO:LB:g=original	!LO:LB:g=original	!	!LO:LB:g=original	!LO:LB:g=original	!
=112	=112	=112	=112	=112	=112
*tremolo	*	*	*	*	*
32DD/LLL	8A\) 8d 8f#	.	8a'\L 8dd 8ff#	8aa'\L 8ddd 8fff#	.
32D/	.	.	.	.	.
32DD/	.	.	.	.	.
32D/	.	.	.	.	.
*	*clefG2	*	*	*	*
32DD/	4A/ 4d 4f#	.	[8a\J [8dd [8ff#	[8aa\J [8ddd [8fff#	.
32D/	.	.	.	.	.
32DD/	.	.	.	.	.
32D/	.	.	.	.	.
32DD/	.	.	(16a\LL] 16dd] 16ff#]	(16aa\LL] 16ddd] 16fff#]	.
32D/	.	.	.	.	.
32DD/	.	.	16dd\)	16ddd\)	.
32D/	.	.	.	.	.
32DD/	4A/ 4d 4f#	.	16ff#'\	16fff#'\	.
32D/	.	.	.	.	.
32DD/	.	.	16gg#X'\JJ	16ggg#X'\JJ	.
32D/	.	.	.	.	.
32DD/	.	.	(16aa\LL	(16aaa\LL	.
32D/	.	.	.	.	.
32DD/	.	.	16dd\)	16ddd\)	.
32D/	.	.	.	.	.
32DD/	[8A/ [8d [8f#	.	16ff#'\	16fff#'\	.
32D/	.	.	.	.	.
32DD/	.	.	16gg#'\JJ	16ggg#'\JJ	.
32D/JJJ	.	.	.	.	.
=113	=113	=113	=113	=113	=113
32DD/LLL	8A/] 8d] 8f#]	.	8aa\L	8aaa\L	.
32D/	.	.	.	.	.
32DD/	.	.	.	.	.
32D/	.	.	.	.	.
32DD/	4A/ 4d 4f#	.	[8dd^\J [8ff# [8aa	[8ddd^\J [8fff# [8aaa	.
32D/	.	.	.	.	.
32DD/	.	.	.	.	.
32D/	.	.	.	.	.
32DD/	.	.	(16dd\LL] 16ff#] 16aa]	(16ddd\LL] 16fff#] 16aaa]	.
32D/	.	.	.	.	.
32DD/	.	.	16dd\)	16ddd\)	.
32D/	.	.	.	.	.
32DD/	4A/ 4d 4f#	.	16ff#'\	16fff#'\	.
32D/	.	.	.	.	.
32DD/	.	.	16gg#X'\JJ	16ggg#X'\JJ	.
32D/	.	.	.	.	.
32DD/	.	.	(16aa\LL	(16aaa\LL	.
32D/	.	.	.	.	.
32DD/	.	.	16dd\)	16ddd\)	.
32D/	.	.	.	.	.
32DD/	[8A/ [8d [8f#	.	16ff#'\	16fff#'\	.
32D/	.	.	.	.	.
32DD/	.	.	16gg#'\JJ	16ggg#'\JJ	.
32D/JJJ	.	.	.	.	.
=114	=114	=114	=114	=114	=114
32DD/LLL	8A/] 8d] 8f#]	.	(16aa\LL	(16aaa\LL	.
32D/	.	.	.	.	.
32DD/	.	.	16dd\)	16ddd\)	.
32D/	.	.	.	.	.
32DD/	4A/ 4d 4f#	.	16ff#'\	16fff#'\	.
32D/	.	.	.	.	.
32DD/	.	.	16gg#X'\JJ	16ggg#X'\JJ	.
32D/	.	.	.	.	.
32DD/	.	.	(16aa\LL	(16aaa\LL	.
32D/	.	.	.	.	.
32DD/	.	.	16ff#\)	16fff#\)	.
32D/	.	.	.	.	.
32DD/	4A/ 4d 4f#	.	16gg#'\	16ggg#'\	.
32D/	.	.	.	.	.
32DD/	.	.	16aa'\JJ	16aaa'\JJ	.
32D/	.	.	.	.	.
32DD/	.	.	16bb'\LL	16bbb'\LL	.
32D/	.	.	.	.	.
32DD/	.	.	16aa'\	16aaa'\	.
32D/	.	.	.	.	.
32DD/	[8A/ [8d [8f#	.	16bb'\	16bbb'\	.
32D/	.	.	.	.	.
32DD/	.	.	16ccc#'\JJ	16cccc#'\JJ	.
32D/JJJ	.	.	.	.	.
*Xtremolo	*	*	*	*	*
=115	=115	=115	=115	=115	=115
8.DD/L 8.D	8.A/L] 8.d] 8.f#]	.	8.ddd\L	8.dddd\L	.
16DD/Jk 16D	16A/Jk 16d 16f#	.	16ff#\Jk 16aa 16ddd	16fff#\Jk 16aaa 16dddd	.
*tremolo	*	*	*	*	*
32DD/LLL	[4A/ [4d [4f#	.	[4ff#\ [4aa [4ddd	[2fff#\ [2aaa [2dddd	.
32D/	.	.	.	.	.
32DD/	.	.	.	.	.
32D/	.	.	.	.	.
32DD/	.	.	.	.	.
32D/	.	.	.	.	.
32DD/	.	.	.	.	.
32D/	.	.	.	.	.
32DD/	8.A/L] 8.d] 8.f#]	.	8.ff#\L] 8.aa] 8.ddd]	.	.
32D/	.	.	.	.	.
32DD/	.	.	.	.	.
32D/	.	.	.	.	.
32DD/	.	.	.	.	.
32D/	.	.	.	.	.
32DD/	32A/LL 32d	.	32f#\LL 32a 32dd	.	.
32D/JJJ	32A/JJJ 32d	.	32f#\JJJ 32a 32dd	.	.
=116	=116	=116	=116	=116	=116
32DD;>/LLL	2.A;/ 2.d	.	2.f#;>/ 2.a 2.dd	8fff#\] 8aaa] 8dddd]	.
32D/	.	.	.	.	.
32DD/	.	.	.	.	.
32D/	.	.	.	.	.
*	*	*	*	*X8va	*
32DD/	.	.	.	8r	.
32D/	.	.	.	.	.
32DD/	.	.	.	.	.
32D/	.	.	.	.	.
32DD/	.	.	.	4r;>	.
32D/	.	.	.	.	.
32DD/	.	.	.	.	.
32D/	.	.	.	.	.
32DD/	.	.	.	.	.
32D/	.	.	.	.	.
32DD/	.	.	.	.	.
32D/	.	.	.	.	.
32DD/	.	.	.	4r	.
32D/	.	.	.	.	.
32DD/	.	.	.	.	.
32D/	.	.	.	.	.
32DD/	.	.	.	.	.
32D/	.	.	.	.	.
32DD/	.	.	.	.	.
32D/JJJ	.	.	.	.	.
*Xtremolo	*	*	*	*	*
==	==	==	==	==	==
*-	*-	*-	*-	*-	*-
!!!system-decoration: {(s1,s2)}{(s3,s4)}
!!!RDF**kern: < = below
!!!RDF**kern: > = above
!!!RDF**kern: N = linked
!!!ENC: Arkadiusz Malec
!!!END: 2022-03-14
!!!ENC: Marta Chmielewska
!!!END: 2022-03-18
!!!YEC: Copyright 2022 Narodowy Instytut Fryderyka Chopina (https://polishscores.org)
!!!YEM: Licence CC BY 4.0 (https://creativecommons.org/licenses/by/4.0)
